!!!OTL: Tianshui xianglian haofengguang
!!!ARE: Asia, China,ÿHunan Lingxiang
!! I, 513
!!!SCT: C1967
!!!YEM: Copyright 1995, estate of Helmut Schaffrath.
**kern
*ICvox
*Ivox
*M2/4
*k[f#]
*G:
{8dd
8dd
16ee
16gg
16ee
16b
=1
4.dd
8b
=2
8dd
16ee
16gg
16ee
16dd
8b
=3
2a}
=4
{8dd
16ee
16gg
16ee
16dd
8b
=5
2a}
=6
{8dd
16dd
16b
8.dd
16b
=7
8a
16b
16a
4g
=8
8e
8b
16a
16g
8e
=9
8g
8e
4d}
=10
{16g
16a
16g
16e
8d
8d
=11
16e
16g
16g
16e
4g}
=12
{8dd
4dd
16b
16dd
=13
8.ee
16dd
8b
8a
=14
4.dd
16b
16a
=15
8.g
16a
8b
16a
16b
=16
4.a
8b
=17
8g
16e
16g
16a
16g
8e
=18
2d}
==
!!!AGN: Xiaodiao, Yuminge
!!!ONB: ESAC (Essen Associative Code) Database: SENGANSU
!!!AMT: simple duple
!!!AIN: vox
!!!EED: Helmut Schaffrath
!!!EEV: 1.0
*-
